dist/svg/static/weblink-large.svg

<svg xmlns="http://www.w3.org/2000/svg" width="48" height="48" viewBox="0 0 48 48"><path d="M35.554 38.748L31.5 28.961m-2.493 5.388l2.398-5.788 5.788 2.397" fill="none" stroke="currentColor" stroke-miterlimit="10"/><path d="M31.294 19h1.475l2.447 5.58L37.525 19h1.257l2.35 5.567L43.553 19H45l-3.28 7h-1.256l-2.337-5.567L35.83 26h-1.257zm-14.146 0h1.475l2.447 5.58L23.379 19h1.257l2.35 5.567L29.407 19h1.448l-3.28 7h-1.256l-2.338-5.567L21.684 26h-1.257zM3 19h1.476l2.447 5.58L9.232 19h1.257l2.351 5.567L15.258 19h1.449l-3.28 7h-1.256l-2.338-5.567L7.537 26H6.28z" fill="currentColor"/></svg>

<?xml version="1.0" encoding="UTF-8" standalone="no"?>
<svg width="48px" height="48px" viewBox="0 0 48 48" version="1.1" xmlns="http://www.w3.org/2000/svg" xmlns:xlink="http://www.w3.org/1999/xlink">
    <!-- Generator: sketchtool 46.2 (44496) - http://www.bohemiancoding.com/sketch -->
    <title>weblink-large</title>
    <desc>Created with sketchtool.</desc>
    <defs></defs>
    <g id="icons-published" stroke="none" stroke-width="1" fill="none" fill-rule="evenodd">
        <g id="briefing" transform="translate(-288.000000, -2458.000000)"></g>
        <g id="weblink-large">
            <path d="M35.6,38.7 L31.5,29 M29,34.3 L31.4,28.5 L37.2,30.9" id="Shape" stroke="#000000"></path>
            <path d="M31.3,19 L32.8,19 L35.2,24.6 L37.5,19 L38.8,19 L41.1,24.6 L43.5,19 L45,19 L41.7,26 L40.4,26 L38.1,20.4 L35.8,26 L34.5,26 L31.3,19 Z M17.1,19 L18.6,19 L21,24.6 L23.3,19 L24.6,19 L27,24.6 L29.4,19 L30.8,19 L27.5,26 L26.2,26 L24,20.4 L21.7,26 L20.4,26 L17.1,19 Z M3,19 L4.5,19 L6.9,24.6 L9.2,19 L10.5,19 L12.9,24.6 L15.3,19 L16.7,19 L13.4,26 L12.1,26 L9.8,20.4 L7.5,26 L6.3,26 L3,19 Z" id="Shape" fill="#000000" fill-rule="nonzero"></path>
        </g>
    </g>
</svg>
